src/img/categ_3.svg

<svg width="100" height="100" viewBox="0 0 100 100" fill="none" xmlns="http://www.w3.org/2000/svg">
<path d="M75.8968 52.6612H24.1031C21.6154 52.6583 19.5994 50.6424 19.5967 48.1547V15.6307C19.5996 13.143 21.6154 11.127 24.1031 11.1243H75.8968C78.3844 11.1271 80.4005 13.143 80.4032 15.6307V48.1547C80.4005 50.6424 78.3846 52.6585 75.8968 52.6612ZM24.1031 13.468C22.9092 13.4694 21.9418 14.4369 21.9404 15.6307V48.1547C21.9418 49.3487 22.9094 50.3161 24.1031 50.3174H75.8968C77.0907 50.3161 78.0581 49.3485 78.0594 48.1547V15.6307C78.0581 14.4368 77.0905 13.4694 75.8968 13.468H24.1031Z" fill="#1E2E36"/>
<path d="M75.8968 81.8929H24.1031C21.6154 81.89 19.5994 79.8741 19.5967 77.3864V54.8241C19.5996 52.3364 21.6154 50.3203 24.1031 50.3176H75.8968C78.3844 50.3205 80.4005 52.3364 80.4032 54.8241V77.3864C80.4005 79.8741 78.3846 81.89 75.8968 81.8929ZM24.1031 52.6612C22.9092 52.6626 21.9418 53.6301 21.9404 54.8239V77.3863C21.9418 78.5802 22.9094 79.5476 24.1031 79.5489H75.8968C77.0907 79.5476 78.0581 78.58 78.0594 77.3863V54.8241C78.0581 53.6301 77.0905 52.6627 75.8968 52.6614H24.1031V52.6612Z" fill="#1E2E36"/>
<path d="M95.4936 81.8928H82.5662C80.0785 81.8899 78.0625 79.874 78.0598 77.3864V37.8441C78.0626 35.3564 80.0785 33.3403 82.5662 33.3376H95.4936C97.9812 33.3405 99.9973 35.3564 100 37.8441V77.3862C99.9971 79.874 97.9812 81.8899 95.4936 81.8928ZM82.566 35.6814C81.3721 35.6828 80.4047 36.6503 80.4033 37.8441V77.3862C80.4047 78.5801 81.3723 79.5475 82.566 79.5489H95.4934C96.6873 79.5475 97.6547 78.5799 97.6561 77.3862V37.8441C97.6547 36.6502 96.6871 35.6828 95.4934 35.6814H82.566Z" fill="#1E2E36"/>
<path d="M17.434 81.8928H4.5066C2.01875 81.8899 0.00287163 79.874 0 77.3862V37.8441C0.00287163 35.3564 2.01875 33.3403 4.50643 33.3376H17.4338C19.9215 33.3405 21.9375 35.3564 21.9402 37.8441V77.3862C21.9375 79.874 19.9217 81.8899 17.434 81.8928ZM4.50643 35.6814C3.31251 35.6828 2.34511 36.6503 2.34375 37.8441V77.3862C2.34511 78.5801 3.31267 79.5475 4.50643 79.5489H17.4338C18.6277 79.5475 19.5951 78.5799 19.5965 77.3862V37.8441C19.5951 36.6502 18.6276 35.6828 17.4338 35.6814H4.50643Z" fill="#1E2E36"/>
<path d="M79.2314 67.2771H20.7685C20.1213 67.2771 19.5967 66.7524 19.5967 66.1053C19.5967 65.4582 20.1213 64.9333 20.7685 64.9333H79.2314C79.8785 64.9333 80.4034 65.458 80.4034 66.1053C80.4034 66.7526 79.8787 67.2771 79.2314 67.2771Z" fill="#1E2E36"/>
<path d="M10.9701 88.8759C9.02871 88.8782 7.33597 87.5558 6.86857 85.6715L5.70472 81.0042C5.54796 80.3764 5.93006 79.7404 6.55776 79.5836C6.65067 79.5605 6.74594 79.5487 6.84154 79.5488H15.0987C15.7458 79.5488 16.2704 80.0733 16.2704 80.7205C16.2704 80.8161 16.2588 80.9115 16.2357 81.0042L15.0716 85.6715C14.6042 87.556 12.9115 88.8782 10.9701 88.8759ZM8.34155 81.8928L9.14256 85.1044C9.39425 86.1137 10.4166 86.7279 11.4258 86.4762C12.1015 86.3076 12.6291 85.7801 12.7976 85.1044L13.5987 81.8928H8.34155Z" fill="#1E2E36"/>
<path d="M89.0298 88.876C87.0883 88.8783 85.3955 87.5559 84.9281 85.6716L83.7643 81.0045C83.6075 80.3766 83.9896 79.7406 84.6173 79.5839C84.7102 79.5607 84.8055 79.5489 84.9011 79.5491H93.1582C93.8053 79.5491 94.33 80.0736 94.33 80.7207C94.33 80.8163 94.3184 80.9118 94.2952 81.0045L93.1314 85.6716C92.664 87.5559 90.9712 88.8783 89.0298 88.876ZM86.4013 81.8928L87.2021 85.1043C87.4538 86.1136 88.4761 86.728 89.4854 86.4763C90.1613 86.3077 90.6888 85.7802 90.8574 85.1043L91.6582 81.8927L86.4013 81.8928Z" fill="#1E2E36"/>
</svg>

<svg width="100" height="100" fill="none" xmlns="http://www.w3.org/2000/svg"><path d="M75.897 52.661H24.103a4.512 4.512 0 01-4.506-4.506V15.63a4.511 4.511 0 014.506-4.507h51.794a4.511 4.511 0 014.506 4.507v32.524a4.511 4.511 0 01-4.506 4.506zM24.103 13.468a2.165 2.165 0 00-2.163 2.163v32.524a2.165 2.165 0 002.163 2.162h51.794a2.165 2.165 0 002.162-2.162V15.63a2.165 2.165 0 00-2.162-2.163H24.103z" fill="#1E2E36"/><path d="M75.897 81.893H24.103a4.512 4.512 0 01-4.506-4.507V54.824a4.512 4.512 0 014.506-4.506h51.794a4.512 4.512 0 014.506 4.506v22.562a4.511 4.511 0 01-4.506 4.507zM24.103 52.66a2.165 2.165 0 00-2.163 2.163v22.562a2.165 2.165 0 002.163 2.163h51.794a2.165 2.165 0 002.162-2.163V54.824a2.165 2.165 0 00-2.162-2.163H24.103z" fill="#1E2E36"/><path d="M95.494 81.893H82.566a4.511 4.511 0 01-4.506-4.507V37.844a4.511 4.511 0 014.506-4.506h12.928A4.512 4.512 0 01100 37.844v39.542a4.512 4.512 0 01-4.506 4.507zM82.566 35.68a2.165 2.165 0 00-2.163 2.163v39.542a2.165 2.165 0 002.163 2.163h12.927a2.165 2.165 0 002.163-2.163V37.844a2.165 2.165 0 00-2.163-2.163H82.566zM17.434 81.893H4.507A4.512 4.512 0 010 77.386V37.844a4.512 4.512 0 014.506-4.506h12.928a4.512 4.512 0 014.506 4.506v39.542a4.511 4.511 0 01-4.506 4.507zM4.506 35.68a2.165 2.165 0 00-2.162 2.163v39.542a2.165 2.165 0 002.162 2.163h12.928a2.165 2.165 0 002.162-2.163V37.844a2.165 2.165 0 00-2.162-2.163H4.506z" fill="#1E2E36"/><path d="M79.231 67.277H20.77a1.172 1.172 0 010-2.344h58.46a1.172 1.172 0 010 2.344zM10.97 88.876a4.22 4.22 0 01-4.1-3.206l-1.164-4.667a1.172 1.172 0 011.137-1.455H15.1a1.172 1.172 0 011.137 1.455l-1.164 4.667a4.22 4.22 0 01-4.102 3.205zm-2.628-6.983l.8 3.211a1.884 1.884 0 003.656 0l.8-3.211H8.343zm80.688 6.983a4.22 4.22 0 01-4.102-3.204l-1.164-4.668a1.172 1.172 0 011.137-1.455h8.257a1.172 1.172 0 011.137 1.455l-1.164 4.668a4.22 4.22 0 01-4.101 3.204zm-2.63-6.983l.801 3.211a1.884 1.884 0 003.655 0l.801-3.211H86.4z" fill="#1E2E36"/></svg>
